!! Orlando di Lasso, "Justus cor suum tradet" 2-part polyphony; alla breve;
!! No. 4 from "Examples of Gregorian Chant & Works ...", compiled
!! by Gustave Soderlund, Appleton-Century-Crofts (New York), 1937; pp. 12-13
**kern	**kern
*M4/2	*M4/2
=1	=1
0r	0dd
=2	=2
0d	1.ff
.	4ee
.	4dd
=3	=3
1.f	2cc
.	2a
.	2.cc
4e	.
4d	4dd
=4	=4
2c	2ee
2d	2a
2.f	2r
.	4a
4g	4b
=5	=5
2a	4cc
.	4f
2d	2ff
2r	1ee
4a	.
4b	.
=6	=6
4cc	2r
4f	.
2b-	2dd
1a	2cc
.	2ee
=7	=7
2r	1ff
2d	.
2c	2ee
2e	[2cc
=8	=8
1f	2cc]
.	4b
.	4a
2e	4cc
.	4b
[2cc	2ee
=9	=9
2cc]	2.gg
4b	.
4a	4ff
4cc	4ee
4b	4dd
2cc	[2ee
=10	=10
2.a	4ee]
.	4dd
.	4cc
4g	4b
2f	4cc
.	4a
4e	[2dd
4d	.
=11	=11
2.e	2dd]
.	2cc#
4e	.
[1d	1dd
=12	=12
1d]	2r
.	2ff
2r	2.ee
2a	.
.	8dd
.	8cc
=13	=13
2.g	4b
.	4cc
.	4dd
8f	4ee
8e	.
4d	2ff
4e	.
4f	2dd
4g	.
=14	=14
2a	1cc
2f	.
1e	2r
.	2ee
=15	=15
2r	2.dd
2g	.
.	8cc
.	8b
2.f	4a
.	4b
.	4cc
8e	4dd
8d	.
=16	=16
4c	2ee
4d	.
4e	2cc
4f	.
2g	2b
2e	2g
=17	=17
2d	2a
2B	2dd
2c	2ee
2f	2a
=18	=18
2g	2r
2c	2ee
2r	2dd
2e	2cc
=19	=19
2d	2ff
2c	4ee
.	4dd
2f	2.cc
4e	.
4d	4dd
=20	=20
2.c	2ee
.	2cc
4d	.
2e	2.g
2c	.
.	4a
=21	=21
2.g	4b
.	4cc
.	2.dd
4a	.
4b	.
4cc	4ee
2dd	4ff
.	4dd
=22	=22
2.cc	2ee
.	2.gg
4b	.
2a	.
.	4ff
2b-	[2ff
=23	=23
1g	2ff]
.	2ee
2r	1ff
[2d	.
=24	=24
4d]	0dd
4e	.
4f	.
4d	.
4g	.
4f	.
2b-	.
=25	=25
2g	1dd
2.f	.
.	2.cc
4e	.
[2a	.
.	8b
.	8a
=26	=26
2a]	2b
2g#	2b
1a	2a
.	[2cc
=27	=27
0f	2cc]
.	2cc
.	4a
.	4b
.	4cc
.	4a
=28	=28
1f	4dd
.	4cc
.	4cc
.	8b
.	8a
2.e	4g
.	4c
.	[2cc
8d	.
8c	.
=29	=29
2d	2cc]
2d	2b
[1c	1cc
=30	=30
1c]	2r
.	1ee
[1g	.
.	2dd
=31	=31
1g]	4b
.	4cc
.	4dd
.	4b
1g	4ee
.	4dd
.	4dd
.	8cc
.	8b
=32	=32
2.f	4a
.	4d
.	1dd
8e	.
8d	.
2e	.
2e	2cc#
=33	=33
0d;	0dd;
==	==
*-	*-
